X:82
T:Bell Ringing - Kerswell
C:Taken down from Geo. Kerswell by F.W.Bussell
%%VWML:SBG-1-1-391-0
F:http://www.vwml.org/record/SBG/1/1/391
Z:Original Sibleius Transcription by Martin and Shan Graebe
L:1/4
M:3/4
I:linebreak $
K:C
G | c A c | [FB] G c | F A G | D F E | C E G | F A G | D F E |$ C2 G/ G/ | c G E | F A G | D G F/E/ | 
D G, G | C E G | F A G | D F E | C2 G/ G/ |$ c A B | G2 G | c A B | G2 G | C E G | F A G | D F E | 
C2 G/ G/ |$ c A c | B G B | c A c | B G G | C E G | F A A | D F E | C3 |] 



